X: 3
M: 2/4
L: 1/8
K: A
E | A A B c | A c B E | A A (B c) | A2 G E | A A
E> F E D | C>D Ez | F> G F E | F G A F | E A G B | A2 A |]


